src/lib/packages/icons/src/assets/line/angle-up-circle.svg

<svg width="24" height="24" viewBox="0 0 24 24" fill="none" xmlns="http://www.w3.org/2000/svg">
<path d="M12 1.25C6.072 1.25 1.25 6.072 1.25 12C1.25 17.928 6.072 22.75 12 22.75C17.928 22.75 22.75 17.928 22.75 12C22.75 6.072 17.928 1.25 12 1.25ZM12 21.25C6.899 21.25 2.75 17.101 2.75 12C2.75 6.899 6.899 2.75 12 2.75C17.101 2.75 21.25 6.899 21.25 12C21.25 17.101 17.101 21.25 12 21.25ZM15.53 12.47C15.823 12.763 15.823 13.238 15.53 13.531C15.384 13.677 15.192 13.751 15 13.751C14.808 13.751 14.616 13.678 14.47 13.531L12 11.061L9.53003 13.531C9.23703 13.824 8.76199 13.824 8.46899 13.531C8.17599 13.238 8.17599 12.763 8.46899 12.47L11.469 9.46997C11.762 9.17697 12.237 9.17697 12.53 9.46997L15.53 12.47Z" fill="currentColor"/>
</svg>

<svg xmlns="http://www.w3.org/2000/svg" width="24" height="24" fill="none"><path fill="currentColor" d="M12 1.25C6.072 1.25 1.25 6.072 1.25 12S6.072 22.75 12 22.75 22.75 17.928 22.75 12 17.928 1.25 12 1.25Zm0 20c-5.101 0-9.25-4.149-9.25-9.25S6.899 2.75 12 2.75s9.25 4.149 9.25 9.25-4.149 9.25-9.25 9.25Zm3.53-8.78a.75.75 0 0 1-1.06 1.061L12 11.061l-2.47 2.47a.75.75 0 0 1-1.061-1.061l3-3a.75.75 0 0 1 1.061 0l3 3Z"/></svg>
